modules/hawcons-stroke/icons/icon-14-two-fingers-tap.svg

<?xml version="1.0" encoding="UTF-8" standalone="no"?>
<svg width="32px" height="32px" viewBox="0 0 32 32" version="1.1" xmlns="http://www.w3.org/2000/svg" xmlns:xlink="http://www.w3.org/1999/xlink" xmlns:sketch="http://www.bohemiancoding.com/sketch/ns">
    <!-- Generator: Sketch 3.0.3 (7891) - http://www.bohemiancoding.com/sketch -->
    <title>icon 14 two fingers tap</title>
    <desc>Created with Sketch.</desc>
    <defs></defs>
    <g id="Page-1" stroke="none" stroke-width="1" fill="none" fill-rule="evenodd" sketch:type="MSPage">
        <g id="icon-14-two-fingers-tap" sketch:type="MSArtboardGroup" fill="#929292">
            <path d="M19.9720203,3.02227599 C19.3388716,2.39057576 18.4650478,2 17.5,2 C16.4213023,2 15.4565798,2.48798583 14.814547,3.25524304 C14.4086781,3.09065136 13.9649255,3 13.5,3 C12.5335016,3 11.6585016,3.39175082 11.0251262,4.02512623 L11.0257156,4.02545306 C10.3919939,4.65933044 10,5.53502325 10,6.50179827 L10,9.32866727 C9.37460006,8.55580421 9,7.57164839 9,6.5 C9,4.0147185 11.0147185,2 13.5,2 C13.854652,2 14.1997217,2.04102684 14.5307218,2.11859335 C15.3230874,1.42225039 16.3622328,1 17.5,1 C19.9852815,1 22,3.0147185 22,5.5 C22,6.57164839 21.6253999,7.55580421 21,8.32866727 L21,5.49129639 C21,4.52720048 20.607265,3.65437555 19.9733967,3.02257501 L19.9720203,3.02227599 L19.9720203,3.02227599 Z M28,22.5 C28,27.1944206 24.1944206,31 19.5,31.0000003 C16.3870848,31.0000003 13.101807,29.5474856 10.8408204,25.4282229 C7.57733174,19.4825159 3.40385286,15.5832077 5.39111327,13.5959473 C6.81276236,12.1742982 9.04484162,13.5381668 11,15.3667868 L11,15.3667868 L11,6.50840855 C11,5.11541748 12.1192881,4 13.5,4 C14.1382496,4 14.7173504,4.23666852 15.1571056,4.62673579 C15.5115762,3.67519131 16.4268195,3 17.5,3 C18.8903379,3 20,4.12083549 20,5.50345613 L20,12.5021366 C20.4178303,12.1873681 20.937197,12 21.5,12 C22.8903379,12 24,13.1182256 24,14.4976267 L24,14.5110883 C24.4178303,14.1985158 24.937197,14.014191 25.5,14.014191 C26.8903379,14.014191 28,15.1335355 28,16.5143168 L28,22.5 L28,22.5 Z M19.5,30 C15.7402849,29.9995418 13.5099958,27.9488875 11.7473755,24.9830936 C7.83536199,18.4007216 5.03386293,15.3887562 6.12103271,14.2957153 C7.23162978,13.1791206 9.94160039,15.5979243 12,17.7983451 L12,6.50524116 C12,5.66712976 12.6715729,5 13.5,5 C14.3342028,5 15,5.67391942 15,6.50524116 L15,17 L16,17 L16,5.49089813 C16,4.67622006 16.6715729,4 17.5,4 C18.3342028,4 19,4.66749783 19,5.49089813 L19,16 L20,16 L20,14.5064385 C20,13.6715406 20.6715729,13 21.5,13 C22.3342028,13 23,13.6744555 23,14.5064385 L23,17 L24,17 L24,16.5016756 C24,15.6711894 24.6715729,15 25.5,15 C26.3342028,15 27,15.6723231 27,16.5016756 L27,18.7491622 L27,22.5 C27,26.6421358 23.6421358,30 19.5,30 L19.5,30 Z" id="two-fingers-tap" sketch:type="MSShapeGroup"></path>
        </g>
    </g>
</svg>

<svg width="32" height="32" xmlns="http://www.w3.org/2000/svg"><path d="M19.972 3.022A3.489 3.489 0 0 0 17.5 2a3.493 3.493 0 0 0-2.685 1.255A3.49 3.49 0 0 0 13.5 3c-.966 0-1.841.392-2.475 1.025A3.492 3.492 0 0 0 10 6.502v2.827a4.5 4.5 0 0 1 4.53-7.21A4.5 4.5 0 0 1 21 8.329V5.49c0-.964-.393-1.837-1.027-2.468h-.001zM28 22.5a8.5 8.5 0 0 1-8.5 8.5c-3.113 0-6.398-1.453-8.66-5.572-3.263-5.945-7.436-9.845-5.449-11.832 1.422-1.422 3.654-.058 5.609 1.77V6.509a2.5 2.5 0 0 1 4.157-1.881A2.499 2.499 0 0 1 17.5 3C18.89 3 20 4.12 20 5.503v7A2.485 2.485 0 0 1 21.5 12c1.39 0 2.5 1.118 2.5 2.498v.013a2.495 2.495 0 0 1 1.5-.497c1.39 0 2.5 1.12 2.5 2.5V22.5zM19.5 30c-3.76 0-5.99-2.051-7.753-5.017-3.912-6.582-6.713-9.594-5.626-10.687 1.11-1.117 3.82 1.302 5.879 3.502V6.505a1.499 1.499 0 1 1 3 0V17h1V5.49a1.501 1.501 0 0 1 3 0V16h1v-1.494a1.5 1.5 0 1 1 3 0V17h1v-.498a1.5 1.5 0 1 1 3 0V22.5a7.5 7.5 0 0 1-7.5 7.5z" fill="#929292" fill-rule="evenodd"/></svg>
